X:2925
T:Surr, surr, surr
C:anon.
O:Germany
Z:Transcribed by Frank Nordberg - http://www.musicaviva.com
F:http://abc.musicaviva.com/tunes/germany/surr-surr-surr.abc
M:2/4
L:1/4
Q:1/4=155
K:G
dc|B z|A/B/ c/A/|G z|B/c/ d/B/|A/B/ c/A/|
B/c/ d/B/|A/B/ c/A/|Bc|d z|c/B/ c/A/|G z|]
W:
W:
W:  From Musica Viva - http://www.musicaviva.com
W:  the Internet center for free sheet music downloads.


